X:227
T:Vals efter Ekman 
T:(SvL Småland 227)
O:Markaryd, Småland
S:Nils Bernhard Ljunggren
R:Vals
B:Svenska Låtar Småland
Z:Till abc Jonas Brunskog
N:* indikerar en kvartstonssänkning
M:3/4
L:1/8
Q:1/4=130
K:A
a2 af df|fe ec Ac|ed BE "*"GB|A2 Ac E2|
a2 af df|fe ec Ac|ed BE "*"GB|A4 z2:|
|:[A,E]4 {Bc}B2|A2 A>c e2|[A,E]4 {Bc}B2|A2 A>c e2|
f2 fd df|fe ec Ac|ed BE "*"GB|A4 z2:|

